images/dist/getStart/search 1.svg

<svg width="40" height="40" viewBox="0 0 40 40" fill="none" xmlns="http://www.w3.org/2000/svg">
<g clip-path="url(#clip0)">
<path d="M39.7266 36.6328L30.2422 27.1484C30.0625 26.9688 29.8281 26.875 29.5781 26.875H28.5469C31.0078 24.0234 32.5 20.3125 32.5 16.25C32.5 7.27344 25.2266 0 16.25 0C7.27344 0 0 7.27344 0 16.25C0 25.2266 7.27344 32.5 16.25 32.5C20.3125 32.5 24.0234 31.0078 26.875 28.5469V29.5781C26.875 29.8281 26.9766 30.0625 27.1484 30.2422L36.6328 39.7266C37 40.0938 37.5938 40.0938 37.9609 39.7266L39.7266 37.9609C40.0938 37.5938 40.0938 37 39.7266 36.6328ZM16.25 28.75C9.34375 28.75 3.75 23.1562 3.75 16.25C3.75 9.34375 9.34375 3.75 16.25 3.75C23.1562 3.75 28.75 9.34375 28.75 16.25C28.75 23.1562 23.1562 28.75 16.25 28.75Z" fill="url(#paint0_linear)"/>
</g>
<defs>
<linearGradient id="paint0_linear" x1="-7.74014e-10" y1="18.9483" x2="40.0188" y2="19.341" gradientUnits="userSpaceOnUse">
<stop stop-color="#4A5DEA"/>
<stop offset="1" stop-color="#914AFF"/>
</linearGradient>
<clipPath id="clip0">
<rect width="40" height="40" fill="white"/>
</clipPath>
</defs>
</svg>

<svg width="40" height="40" fill="none" xmlns="http://www.w3.org/2000/svg"><g clip-path="url(#a)"><path d="m39.727 36.633-9.485-9.485a.928.928 0 0 0-.664-.273h-1.031A16.206 16.206 0 0 0 32.5 16.25C32.5 7.273 25.227 0 16.25 0S0 7.273 0 16.25 7.273 32.5 16.25 32.5c4.063 0 7.773-1.492 10.625-3.953v1.031c0 .25.102.485.273.664l9.485 9.485a.938.938 0 0 0 1.328 0l1.766-1.766a.938.938 0 0 0 0-1.328zM16.25 28.75c-6.906 0-12.5-5.594-12.5-12.5s5.594-12.5 12.5-12.5 12.5 5.594 12.5 12.5-5.594 12.5-12.5 12.5z" fill="url(#b)"/></g><defs><linearGradient id="b" x1="0" y1="18.948" x2="40.019" y2="19.341" gradientUnits="userSpaceOnUse"><stop stop-color="#4A5DEA"/><stop offset="1" stop-color="#914AFF"/></linearGradient><clipPath id="a"><path fill="#fff" d="M0 0h40v40H0z"/></clipPath></defs></svg>
